static/images/mobile/copyright/commons-wordmark-en.svg

<?xml version="1.0" encoding="UTF-8"?>
<svg  viewBox="0 0 96 18" version="1.1" xmlns="http://www.w3.org/2000/svg" xmlns:xlink="http://www.w3.org/1999/xlink">
    <title>Combined Shape</title>



            <g id="commons" stroke="none"  fill-rule="evenodd" fill="#54595D">
                <path d="M23.572,5.116 C20.576,5.116 18.322,7.244 18.322,10.072 C18.322,12.956 20.52,15.112 23.474,15.112 C24.93,15.112 26.498,14.398 27.548,13.292 L26.05,11.682 C25.364,12.382 24.426,12.83 23.614,12.83 C22.102,12.83 20.954,11.626 20.954,10.044 C20.954,8.476 22.102,7.286 23.614,7.286 C24.468,7.286 25.406,7.79 26.05,8.574 L27.534,6.796 C26.554,5.76 25.028,5.116 23.572,5.116 Z M33.316,5.116 C36.354,5.116 38.622,7.244 38.622,10.086 C38.622,12.956 36.354,15.112 33.316,15.112 C30.278,15.112 28.01,12.956 28.01,10.086 C28.01,7.23 30.278,5.116 33.316,5.116 Z M33.344,7.3 C31.874,7.3 30.642,8.504 30.642,10.1 C30.642,11.696 31.888,12.928 33.344,12.928 C34.814,12.928 35.99,11.696 35.99,10.1 C35.99,8.504 34.814,7.3 33.344,7.3 Z M50.704,5.186 L47.904,5.186 L45.3,10.912 L42.696,5.186 L39.896,5.186 L39.896,15 L42.178,15 L42.178,8.784 L44.46,14.02 L46.14,14.02 L48.422,8.784 L48.436,15 L50.704,15 L50.704,5.186 Z M63.416,5.186 L60.616,5.186 L58.012,10.912 L55.408,5.186 L52.608,5.186 L52.608,15 L54.89,15 L54.89,8.784 L57.172,14.02 L58.852,14.02 L61.134,8.784 L61.148,15 L63.416,15 L63.416,5.186 Z M69.996,5.116 C73.034,5.116 75.302,7.244 75.302,10.086 C75.302,12.956 73.034,15.112 69.996,15.112 C66.958,15.112 64.69,12.956 64.69,10.086 C64.69,7.23 66.958,5.116 69.996,5.116 Z M70.024,7.3 C68.554,7.3 67.322,8.504 67.322,10.1 C67.322,11.696 68.568,12.928 70.024,12.928 C71.494,12.928 72.67,11.696 72.67,10.1 C72.67,8.504 71.494,7.3 70.024,7.3 Z M85.662,5.186 L83.282,5.186 L83.282,11.094 L78.83,5.186 L76.576,5.186 L76.576,15 L78.97,15 L78.97,9.12 L83.422,15 L85.662,15 L85.662,5.186 Z M91.388,5.074 C92.83,5.074 94.286,5.522 95.308,6.18 L94.342,8.21 C93.306,7.622 91.99,7.16 91.178,7.16 C90.562,7.16 90.156,7.384 90.156,7.832 C90.156,9.456 95.322,8.532 95.322,12.06 C95.322,14.062 93.558,15.084 91.374,15.084 C89.736,15.084 88.028,14.482 86.852,13.516 L87.846,11.514 C88.854,12.382 90.38,12.998 91.402,12.998 C92.158,12.998 92.634,12.718 92.634,12.2 C92.634,10.534 87.468,11.542 87.468,8.07 C87.468,6.236 89.022,5.074 91.388,5.074 Z M9.32727273,5.56363636 C11.5363636,6.62727273 13.0909091,8.83636364 13.0909091,11.4545455 C13.0909091,15.0545455 10.1454545,18 6.54545455,18 C2.94545455,18 0,15.0545455 0,11.4545455 C0,9.57272727 0.818181818,7.85454545 2.04545455,6.70909091 L3.27272727,7.85454545 L3.84545536,8.42727273 L4.25454627,8.01818182 L4.58181818,9.49090909 L3.10909091,9.16363636 L3.51818182,8.75454545 L2.94545455,8.18181818 C2.12727273,9 1.71818182,10.0636364 1.63636364,11.2909091 L2.45454545,11.2909091 L2.45454545,10.6363636 L3.68181818,11.4545455 L2.45454545,12.2727273 L2.45454545,11.6181818 L1.63636364,11.6181818 C1.718181,12.8454554 2.20909009,13.9090909 2.94545373,14.7272727 L3.518181,14.1545446 L3.10909009,13.7454537 L4.58181736,13.4181818 L4.25454545,14.8909083 L3.84545455,14.4818174 L3.27272727,15.0545455 C4.09090909,15.8727273 5.15454545,16.2818182 6.38181818,16.3636364 L6.38181818,15.5454545 L5.72727273,15.5454545 L6.54545455,14.3181818 L7.36363636,15.5454545 L6.70909091,15.5454545 L6.70909091,16.3636364 C7.93636364,16.2818182 9,15.7909083 9.81818182,15.0545455 L9.24545455,14.4818174 L8.83636364,14.8909083 L8.50909091,13.4181818 L9.98181818,13.7454537 L9.57272727,14.1545446 L10.1454545,14.7272727 C10.9636364,13.9090909 11.3727273,12.8454554 11.4545455,11.6181818 L10.6363636,11.6181818 L10.6363636,12.2727273 L9.40909091,11.4545455 L10.6363636,10.6363636 L10.6363636,11.2909099 L11.4545455,11.2909099 C11.3727273,10.0636364 10.8818182,9 10.1454545,8.18181818 L9.57272727,8.75454545 L9.98181818,9.16363636 L8.50909091,9.49090909 L8.83636364,8.01818182 L9.24545455,8.42727273 L9.81818182,7.85454545 C9.32727273,7.36363636 8.01818182,6.79090909 8.01818182,6.79090909 C8.01818182,6.79090909 6.87272727,6.21818182 6.21818182,4.99090909 C5.72727273,3.92727273 5.72727273,3.27272727 5.72727273,3.27272727 L4.09090909,4.09090909 L6.54545455,0 L9,4.09090909 C9,4.09090909 7.44545455,3.35454545 7.36363636,3.27272727 C7.44545455,3.51818182 7.69090909,4.82727273 9.32727273,5.56363636 Z M9,11.4545455 C9,12.8101533 7.90105909,13.9090909 6.54545455,13.9090909 C5.18985,13.9090909 4.09090909,12.8101533 4.09090909,11.4545455 C4.09090909,10.0989409 5.18985,9 6.54545455,9 C7.90105909,9 9,10.0989409 9,11.4545455 Z" id="Combined-Shape"></path>
            </g>

</svg>

<?xml version="1.0" encoding="UTF-8"?><svg viewBox="0 0 96 18" xmlns="http://www.w3.org/2000/svg"><title>Combined Shape</title><g id="commons" fill-rule="evenodd" fill="#54595D"><path d="M23.572 5.116c-2.996 0-5.25 2.128-5.25 4.956 0 2.884 2.198 5.04 5.152 5.04 1.456 0 3.024-.714 4.074-1.82l-1.498-1.61c-.686.7-1.624 1.148-2.436 1.148-1.512 0-2.66-1.204-2.66-2.786 0-1.568 1.148-2.758 2.66-2.758.854 0 1.792.504 2.436 1.288l1.484-1.778c-.98-1.036-2.506-1.68-3.962-1.68zm9.744 0c3.038 0 5.306 2.128 5.306 4.97 0 2.87-2.268 5.026-5.306 5.026-3.038 0-5.306-2.156-5.306-5.026 0-2.856 2.268-4.97 5.306-4.97zm.028 2.184c-1.47 0-2.702 1.204-2.702 2.8 0 1.596 1.246 2.828 2.702 2.828 1.47 0 2.646-1.232 2.646-2.828 0-1.596-1.176-2.8-2.646-2.8zm17.36-2.114h-2.8L45.3 10.912l-2.604-5.726h-2.8V15h2.282V8.784l2.282 5.236h1.68l2.282-5.236.014 6.216h2.268V5.186zm12.712 0h-2.8l-2.604 5.726-2.604-5.726h-2.8V15h2.282V8.784l2.282 5.236h1.68l2.282-5.236.014 6.216h2.268V5.186zm6.58-.07c3.038 0 5.306 2.128 5.306 4.97 0 2.87-2.268 5.026-5.306 5.026-3.038 0-5.306-2.156-5.306-5.026 0-2.856 2.268-4.97 5.306-4.97zm.028 2.184c-1.47 0-2.702 1.204-2.702 2.8 0 1.596 1.246 2.828 2.702 2.828 1.47 0 2.646-1.232 2.646-2.828 0-1.596-1.176-2.8-2.646-2.8zm15.638-2.114h-2.38v5.908L78.83 5.186h-2.254V15h2.394V9.12L83.422 15h2.24V5.186zm5.726-.112c1.442 0 2.898.448 3.92 1.106l-.966 2.03c-1.036-.588-2.352-1.05-3.164-1.05-.616 0-1.022.224-1.022.672 0 1.624 5.166.7 5.166 4.228 0 2.002-1.764 3.024-3.948 3.024-1.638 0-3.346-.602-4.522-1.568l.994-2.002c1.008.868 2.534 1.484 3.556 1.484.756 0 1.232-.28 1.232-.798 0-1.666-5.166-.658-5.166-4.13 0-1.834 1.554-2.996 3.92-2.996zm-82.06.49c2.208 1.063 3.763 3.272 3.763 5.89 0 3.6-2.946 6.546-6.546 6.546S0 15.055 0 11.455c0-1.882.818-3.6 2.045-4.746l1.228 1.146.572.572.41-.409.327 1.473-1.473-.327.41-.41-.574-.572C2.127 9 1.718 10.064 1.636 11.29h.819v-.655l1.227.819-1.227.818v-.655h-.819a5.118 5.118 0 0 0 1.31 3.11l.572-.573-.409-.41 1.473-.327-.327 1.473-.41-.41-.572.574c.818.818 1.882 1.227 3.109 1.309v-.819h-.655l.818-1.227.819 1.227h-.655v.819a5.118 5.118 0 0 0 3.11-1.31l-.574-.572-.409.409-.327-1.473 1.473.327-.41.41.573.572c.819-.818 1.228-1.882 1.31-3.109h-.819v.655l-1.227-.818 1.227-.819v.655h.819a5.118 5.118 0 0 0-1.31-3.11l-.572.574.409.409-1.473.327.327-1.473.41.41.572-.573c-.49-.491-1.8-1.064-1.8-1.064s-1.145-.573-1.8-1.8c-.49-1.064-.49-1.718-.49-1.718L4.09 4.09 6.545 0 9 4.09s-1.555-.735-1.636-.817c.081.245.327 1.554 1.963 2.29zM9 11.454a2.455 2.455 0 1 1-4.91 0 2.455 2.455 0 0 1 4.91 0z" id="Combined-Shape"/></g></svg>
